app/assets/images/icons/active/image--line.svg

<svg width="32" height="232" viewBox="0 0 32 232" xmlns="http://www.w3.org/2000/svg"><title>image-line</title><g fill="none"><path d="M28.451 149h-24.898c-1.96 0-3.552-1.607-3.552-3.586v-17.828c0-1.977 1.592-3.586 3.552-3.586h24.898c1.957 0 3.549 1.609 3.549 3.586v17.828c0 1.979-1.592 3.586-3.549 3.586zm-24.898-23.166c-.96 0-1.737.786-1.737 1.752v17.828c0 .969.778 1.752 1.737 1.752h24.898c.957 0 1.735-.783 1.735-1.752v-17.828c0-.966-.778-1.752-1.735-1.752h-24.898zm16.445 3.73c-3.792 0-6.868 3.106-6.868 6.936 0 3.832 3.076 6.937 6.868 6.937 3.796 0 6.871-3.105 6.871-6.937 0-3.83-3.075-6.936-6.871-6.936zm0 1.835c2.79 0 5.056 2.289 5.056 5.101 0 2.815-2.265 5.102-5.056 5.102-2.784 0-5.051-2.287-5.051-5.102 0-2.812 2.267-5.101 5.051-5.101zm-9.023-2.692h-5.261c-.7 0-1.267.549-1.267 1.229 0 .678.567 1.228 1.267 1.228h5.261c.699 0 1.267-.55 1.267-1.228 0-.68-.568-1.229-1.267-1.229zm0 0" fill="#206FAC"/><path d="M28.451 109h-24.898c-1.96 0-3.552-1.607-3.552-3.586v-17.828c0-1.977 1.592-3.586 3.552-3.586h24.898c1.957 0 3.549 1.609 3.549 3.586v17.828c0 1.979-1.592 3.586-3.549 3.586zm-24.898-23.166c-.96 0-1.737.786-1.737 1.752v17.828c0 .969.778 1.752 1.737 1.752h24.898c.957 0 1.735-.783 1.735-1.752v-17.828c0-.966-.778-1.752-1.735-1.752h-24.898zm16.445 3.73c-3.792 0-6.868 3.106-6.868 6.936 0 3.832 3.076 6.937 6.868 6.937 3.796 0 6.871-3.105 6.871-6.937 0-3.83-3.075-6.936-6.871-6.936zm0 1.835c2.79 0 5.056 2.289 5.056 5.101 0 2.815-2.265 5.102-5.056 5.102-2.784 0-5.051-2.287-5.051-5.102 0-2.812 2.267-5.101 5.051-5.101zm-9.023-2.692h-5.261c-.7 0-1.267.549-1.267 1.229 0 .678.567 1.228 1.267 1.228h5.261c.699 0 1.267-.55 1.267-1.228 0-.68-.568-1.229-1.267-1.229zm0 0" fill="#fff"/><path d="M28.451 69h-24.898c-1.96 0-3.552-1.607-3.552-3.586v-17.828c0-1.977 1.592-3.586 3.552-3.586h24.898c1.957 0 3.549 1.609 3.549 3.586v17.828c0 1.979-1.592 3.586-3.549 3.586zm-24.898-23.166c-.96 0-1.737.786-1.737 1.752v17.828c0 .969.778 1.752 1.737 1.752h24.898c.957 0 1.735-.783 1.735-1.752v-17.828c0-.966-.778-1.752-1.735-1.752h-24.898zm16.445 3.73c-3.792 0-6.868 3.106-6.868 6.936 0 3.832 3.076 6.937 6.868 6.937 3.796 0 6.871-3.105 6.871-6.937 0-3.83-3.075-6.936-6.871-6.936zm0 1.835c2.79 0 5.056 2.289 5.056 5.101 0 2.815-2.265 5.102-5.056 5.102-2.784 0-5.051-2.287-5.051-5.102 0-2.812 2.267-5.101 5.051-5.101zm-9.023-2.692h-5.261c-.7 0-1.267.549-1.267 1.229 0 .678.567 1.228 1.267 1.228h5.261c.699 0 1.267-.55 1.267-1.228 0-.68-.568-1.229-1.267-1.229zm0 0" fill="#67737B"/><path d="M28.451 29h-24.898c-1.96 0-3.552-1.607-3.552-3.586v-17.828c0-1.977 1.592-3.586 3.552-3.586h24.898c1.957 0 3.549 1.609 3.549 3.586v17.828c0 1.979-1.592 3.586-3.549 3.586zm-24.898-23.166c-.96 0-1.737.786-1.737 1.752v17.828c0 .969.778 1.752 1.737 1.752h24.898c.957 0 1.735-.783 1.735-1.752v-17.828c0-.966-.778-1.752-1.735-1.752h-24.898zm16.445 3.73c-3.792 0-6.868 3.106-6.868 6.936 0 3.832 3.076 6.937 6.868 6.937 3.796 0 6.871-3.105 6.871-6.937 0-3.83-3.075-6.936-6.871-6.936zm0 1.835c2.79 0 5.056 2.289 5.056 5.101 0 2.815-2.265 5.102-5.056 5.102-2.784 0-5.051-2.287-5.051-5.102 0-2.812 2.267-5.101 5.051-5.101zm-9.023-2.692h-5.261c-.7 0-1.267.549-1.267 1.229 0 .678.567 1.228 1.267 1.228h5.261c.699 0 1.267-.55 1.267-1.228 0-.68-.568-1.229-1.267-1.229zm0 0" fill="#3A434E"/></g></svg>

<svg width="32" height="232" viewBox="0 0 32 232" xmlns="http://www.w3.org/2000/svg"><title>image-line</title><g fill="none"><path d="M28.45 149H3.554C1.593 149 0 147.393 0 145.414v-17.828C0 125.61 1.594 124 3.554 124H28.45c1.958 0 3.55 1.61 3.55 3.586v17.828c0 1.98-1.592 3.586-3.55 3.586zM3.554 125.834c-.96 0-1.737.786-1.737 1.752v17.828c0 .97.778 1.752 1.737 1.752H28.45c.958 0 1.736-.783 1.736-1.752v-17.828c0-.966-.778-1.752-1.735-1.752H3.554zm16.445 3.73c-3.792 0-6.868 3.106-6.868 6.936 0 3.832 3.076 6.937 6.868 6.937 3.796 0 6.87-3.105 6.87-6.937 0-3.83-3.074-6.936-6.87-6.936zm0 1.835c2.79 0 5.056 2.288 5.056 5.1 0 2.815-2.265 5.102-5.056 5.102-2.784 0-5.05-2.287-5.05-5.102 0-2.812 2.266-5.1 5.05-5.1zm-9.023-2.693h-5.26c-.7 0-1.268.55-1.268 1.23 0 .677.567 1.227 1.267 1.227h5.26c.7 0 1.268-.55 1.268-1.228 0-.68-.568-1.23-1.267-1.23zm0 0" fill="#206FAC"/><path d="M28.45 109H3.554C1.593 109 0 107.393 0 105.414V87.586C0 85.61 1.594 84 3.554 84H28.45C30.41 84 32 85.61 32 87.586v17.828c0 1.98-1.592 3.586-3.55 3.586zM3.554 85.834c-.96 0-1.737.786-1.737 1.752v17.828c0 .97.778 1.752 1.737 1.752H28.45c.958 0 1.736-.783 1.736-1.752V87.586c0-.966-.778-1.752-1.735-1.752H3.554zm16.445 3.73c-3.792 0-6.868 3.106-6.868 6.936 0 3.832 3.076 6.937 6.868 6.937 3.796 0 6.87-3.105 6.87-6.937 0-3.83-3.074-6.936-6.87-6.936zm0 1.835c2.79 0 5.056 2.288 5.056 5.1 0 2.815-2.265 5.102-5.056 5.102-2.784 0-5.05-2.287-5.05-5.102 0-2.812 2.266-5.1 5.05-5.1zm-9.023-2.693h-5.26c-.7 0-1.268.55-1.268 1.23 0 .677.567 1.227 1.267 1.227h5.26c.7 0 1.268-.55 1.268-1.228 0-.68-.568-1.23-1.267-1.23zm0 0" fill="#fff"/><path d="M28.45 69H3.554C1.593 69 0 67.393 0 65.414V47.586C0 45.61 1.594 44 3.554 44H28.45C30.41 44 32 45.61 32 47.586v17.828C32 67.394 30.408 69 28.45 69zM3.554 45.834c-.96 0-1.737.786-1.737 1.752v17.828c0 .97.778 1.752 1.737 1.752H28.45c.958 0 1.736-.783 1.736-1.752V47.586c0-.966-.778-1.752-1.735-1.752H3.554zm16.445 3.73c-3.792 0-6.868 3.106-6.868 6.936 0 3.832 3.076 6.937 6.868 6.937 3.796 0 6.87-3.105 6.87-6.937 0-3.83-3.074-6.936-6.87-6.936zm0 1.835c2.79 0 5.056 2.288 5.056 5.1 0 2.815-2.265 5.102-5.056 5.102-2.784 0-5.05-2.287-5.05-5.102 0-2.812 2.266-5.1 5.05-5.1zm-9.023-2.693h-5.26c-.7 0-1.268.55-1.268 1.23 0 .677.567 1.227 1.267 1.227h5.26c.7 0 1.268-.55 1.268-1.228 0-.68-.568-1.23-1.267-1.23zm0 0" fill="#67737B"/><path d="M28.45 29H3.554C1.593 29 0 27.393 0 25.414V7.586C0 5.61 1.594 4 3.554 4H28.45C30.41 4 32 5.61 32 7.586v17.828C32 27.394 30.408 29 28.45 29zM3.554 5.834c-.96 0-1.737.786-1.737 1.752v17.828c0 .97.778 1.752 1.737 1.752H28.45c.958 0 1.736-.783 1.736-1.752V7.586c0-.966-.778-1.752-1.735-1.752H3.554zm16.445 3.73c-3.792 0-6.868 3.106-6.868 6.936 0 3.832 3.076 6.937 6.868 6.937 3.796 0 6.87-3.105 6.87-6.937 0-3.83-3.074-6.936-6.87-6.936zm0 1.835c2.79 0 5.056 2.288 5.056 5.1 0 2.815-2.265 5.102-5.056 5.102-2.784 0-5.05-2.287-5.05-5.102 0-2.812 2.266-5.1 5.05-5.1zm-9.023-2.693h-5.26c-.7 0-1.268.55-1.268 1.23 0 .677.567 1.227 1.267 1.227h5.26c.7 0 1.268-.55 1.268-1.228 0-.68-.568-1.23-1.267-1.23zm0 0" fill="#3A434E"/></g></svg>
